!!!!SEGMENT: pl-kk--kk-i-10--021-005_anonim--missa-paschalis-agnus-dei.krn
!!!cenid: 16xx:1221
!!!COM: Anonim
!!!COM-rismid: pe30004985
!!!CDT:
!!!CNT:
!!!OTL: Missa Paschalis – Agnus Dei
!!!PDT:
!!!AGN: Sacred; Mass
!!!SMS-siglum: PL-Kk
!!!SMS-shelfmark: Kk.I.10
!!!SMS-shelfwork: 021-005 M
!!!SMS-variant:
!!!SMS-altvar:
!!!NIFC-rismid: 1001154021
!!!system-decoration: [(s1,s2,s3)]
**kern	**text	**text	**kern	**text	**kern	**text	**text
*part3	*part3	*part3	*part2	*part2	*part1	*part1	*part1
*staff3	*staff3	*staff3	*staff2	*staff2	*staff1	*staff1	*staff1
*I"[Bas]	*	*	*I"[Tenor]	*	*I"[Alt]	*	*
*I'B	*	*	*I'[T]	*	*I'[A]	*	*
*clefF4	*	*	*clefC4	*	*clefC3	*	*
*k[]	*	*	*k[]	*	*k[]	*	*
*d:	*	*	*d:	*	*d:	*	*
*M2/1	*	*	*M2/1	*	*M2/1	*	*
*met(C|)	*	*	*met(C|)	*	*met(C|)	*	*
=1-	=1-	=1-	=1-	=1-	=1-	=1-	=1-
!LO:TX:t=P:problem:w źródle inicjał A na początku pięciolinii	!	!	!	!	!	!	!
!	!	!	!LO:TX:t=P:problem:w źródle inicjał A na początku pięciolinii	!	!LO:TX:t=P:problem:w źródle inicjał A na początku pięciolinii	!	!
!	!	!	!	!	!LO:TX:t=P:problem:w źródle kolejność części Agnus Dei w pierwszym głosie jest odwrotna [w kodzie poprawna kolejność]	!	!
1.D	A-	.	1d	A-	1.f	A-	.
.	.	.	2A/	-gn(us)	.	.	.
2D/	-gn(us)	.	1d\	.	2f\	-gn(us)	.
=2-	=2-	=2-	=2-	=2-	=2-	=2-	=2-
1AA	De-	.	.	.	1e	De-	.
.	.	.	2c#X\	De-	.	.	.
2D/	-i	.	2d\	-i	2f\	-i	.
2D/	qui	.	2d\	qui	2f\	qui	.
!LO:LB:g=original	!	!	!	!	!	!	!
=3-	=3-	=3-	=3-	=3-	=3-	=3-	=3-
*M3/2	*	*	*M3/2	*	*M3/2	*	*
2.D/	tol-	.	2d\	tol-	2.f\	tol-	.
.	.	.	2d\	-lis	.	.	.
4D/	-lis	.	.	.	4f\	-lis	.
2BB/	pec-	.	2d\	pec-	2g\	pec-	.
=4-	=4-	=4-	=4-	=4-	=4-	=4-	=4-
4AA/	-ca-	.	1e	-ca-	1a	-ca-	.
4BB/	.	.	.	.	.	.	.
4C/	.	.	.	.	.	.	.
4D/	.	.	.	.	.	.	.
2E\	.	.	2e\	-ta	2g\	-ta	.
=5-	=5-	=5-	=5-	=5-	=5-	=5-	=5-
!	!	!	!	!	!LO:TX:a:t=P:problem:# above	!	!
!	!	!	!	!	!LO:N:acc=#	!	!
2F\	.	.	2cny\	mun-	1fni	mun-	.
2D\	-ta	.	2d\	.	.	.	.
2E\	mun-	.	2B\	-di	2e\	.	.
=6-	=6-	=6-	=6-	=6-	=6-	=6-	=6-
1.AA	-di	.	1.c	.	2e\	-di	.
.	.	.	.	.	2e\	mi	.
.	.	.	.	.	2r	.	.
!	!	!	!	!	!LO:LB:g=original	!	!
=7-	=7-	=7-	=7-	=7-	=7-	=7-	=7-
2A\	mi-	.	2e\	mi-	2a\	re-	.
2E\	-se-	.	2e\	-se-	2g\	.	.
2F\	-re-	.	2c\	-re-	2f\	.	.
=8-	=8-	=8-	=8-	=8-	=8-	=8-	=8-
1.C	-re	.	1.c	-re	2e\	-re	.
.	.	.	.	.	2e\	mi-	.
.	.	.	.	.	2g\	-ſe-	.
!	!	!	!LO:LB:g=original	!	!	!	!
=9-	=9-	=9-	=9-	=9-	=9-	=9-	=9-
*	*ij	*	*	*ij	*	*	*
2F\	mi-	.	2c\	mi-	2f\	-re-	.
2C/	-se-	.	2c\	-se-	2e\	.	.
2D/	-re-	.	2A/	-re-	2d\	-re	.
=10-	=10-	=10-	=10-	=10-	=10-	=10-	=10-
*	*	*	*	*	*	*ij	*
1.AA	-re	.	1.A	-re	2c/	mi-	.
.	.	.	.	.	2c/	-ſe-	.
.	.	.	.	.	2c/	-re-	.
*	*Xij	*	*	*Xij	*	*	*
=11-	=11-	=11-	=11-	=11-	=11-	=11-	=11-
*	*ij	*	*	*	*	*	*
2FF/	mi-	[[no]]	2d\	no-	2d\	-re	.
*	*	*	*	*	*	*Xij	*
2GG/	-se-	.	2.e\	.	2d\	no-	.
2AA/	-re-	.	.	.	2c/	-bis	.
.	.	.	4A/	.	.	.	.
=12-	=12-	=12-	=12-	=12-	=12-	=12-	=12-
2D/	-re	.	2A/	-bis	2d\	mi-	.
*	*Xij	*	*	*	*	*	*
2GG/	mi-	.	2.d\	mi-	2g\	-ſe-	.
2FF/	-se-	.	.	.	2a\	-re-	.
.	.	.	4d\	-se-	.	.	.
=13-	=13-	=13-	=13-	=13-	=13-	=13-	=13-
1AA	-re-	.	1c	-re-	1e	-re	.
2AA/	-re	.	2d\	-re	2f\	no-	.
!LO:LB:g=original	!	!	!	!	!	!	!
=14-	=14-	=14-	=14-	=14-	=14-	=14-	=14-
!	!	!	!	!	!LO:TX:a:t=P:w kodzie łamanie systemu postawione w tym miejscu ze względu na problem z renderingiem:problem	!	!
1.AA	no-	.	1d	no-	0.fl	-bis	.
!	!	!	!	!	!LO:LB:g=original	!	!
!	!	!	!LO:TX:a:t=P:problem:# above	!	!	!	!
.	.	.	2c#Xi\	.	.	.	.
=15-	=15-	=15-	=15-	=15-	=15-	=15-	=15-
!LO:TX:a:t=P:w źródle fermaty bez kropek:problem	!	!	!	!	!	!	!
!LO:TX:a:t=P:very like terminal long:problem	!	!	!	!	!	!	!
!	!	!	!LO:TX:a:t=P:very like terminal long:problem	!	!	!	!
1.Dl;;	-bis	.	1.dl/	-bis	.	.	.
=16-	=16-	=16-	=16-	=16-	=16-	=16-	=16-
*M2/1	*	*	*M2/1	*	*M2/1	*	*
*met(C|)	*	*	*met(C|)	*	*met(C|)	*	*
!LO:TX:t=P:problem:w źródle inicjał A na początku pięciolinii	!	!	!	!	!	!	!
!	!	!	!LO:TX:t=P:problem:w źródle inicjał A na początku pięciolinii	!	!LO:TX:t=P:problem:w źródle inicjał A na początku pięciolinii	!	!
2r	.	.	2r	.	2r	.	.
1G\	A-	.	2d\	A-	1g\	A-	.
.	.	.	2d\	-gn(us)	.	.	.
2E\	-gn(us)	.	2.cny\	De-	2g\	-gn(us)	.
=17-	=17-	=17-	=17-	=17-	=17-	=17-	=17-
2.F\	De-	.	.	.	2.f\	De-	.
.	.	.	8B\L	.	.	.	.
.	.	.	8A\J	.	.	.	.
.	.	.	1d\	.	.	.	.
8E\L	.	.	.	.	4g\	.	.
8D\J	.	.	.	.	.	.	.
2A\	.	.	.	.	2a\	.	.
!	!	!	!LO:TX:a:t=P:problem:# above	!	!	!	!
2AA/	.	.	2c#Xi\	.	2e\	.	.
!	!	!	!LO:LB:g=original	!	!	!	!
=18-	=18-	=18-	=18-	=18-	=18-	=18-	=18-
*M3/2	*	*	*M3/2	*	*M3/2	*	*
2D/	-i	.	2d\	-i	2f\	-i	.
4D/	qui	.	2A/	qui	2f\	qui	.
4E/	.	.	.	.	.	.	.
4F\	.	.	2A/	tol-	2d\	tol-	.
4G\	.	.	.	.	.	.	.
=19-	=19-	=19-	=19-	=19-	=19-	=19-	=19-
2A\	.	.	2A/	-lis	2.c/	-lis	.
2A\	tol-	.	2cny\	pec-	.	.	.
.	.	.	.	.	4d\	pec-	.
2E\	-lis	.	2B\	-ca-	2e\	-ca-	.
=20-	=20-	=20-	=20-	=20-	=20-	=20-	=20-
2F\	pec-	.	2d\	-ta	2d\	-ta	.
2G\	-ca-	.	2.e\	mun-	2d/	mun-	.
2A\	-ta	.	.	.	2c/	.	.
.	.	.	4A/	.	.	.	.
=21-	=21-	=21-	=21-	=21-	=21-	=21-	=21-
1D	mun-	.	1.A	-di	1.d	-di	.
2D\	-di	.	.	.	.	.	.
!	!	!	!	!	!LO:LB:g=original	!	!
=22-	=22-	=22-	=22-	=22-	=22-	=22-	=22-
*	*	*	*	*ij	*	*ij	*
1D	do-	.	1d	A-	1f	qui	.
2BB/	-na	.	2d\	-gnus	2g#X\	tol-	.
!LO:LB:g=original	!	!	!	!	!	!	!
=23-	=23-	=23-	=23-	=23-	=23-	=23-	=23-
4AA/	no-	.	1e	De-	1a	-lis	.
4BB/	.	.	.	.	.	.	.
4C/	.	.	.	.	.	.	.
4D/	.	.	.	.	.	.	.
2E\	.	.	2e\	-i	2gny\	pec-	.
=24-	=24-	=24-	=24-	=24-	=24-	=24-	=24-
2F\	-bis	.	2c\	qui	2.f\	-ca-	.
2D\	pa-	.	2d\	tol-	.	.	.
.	.	.	.	.	4f\	-ta	.
2E\	.	.	2B\	-lis	2e\	mun-	.
=25-	=25-	=25-	=25-	=25-	=25-	=25-	=25-
!	!	!	!LO:TX:a:t=P:problem:# above	!	!	!	!
1AA	-ce(m)	.	2c#Xi\	pec-	1e	-di	.
.	.	.	2e\	-ca-	.	.	.
*	*	*	*	*	*	*Xij	*
!	!	!	!	!	!LO:TX:t=P:problem:kreska pseudotaktowa	!	!
!	!	!	!LO:TX:a:t=P:problem:# above	!	!	!	!
2A\	do-	.	2c#Xi\	-ta	2r	.	.
=26-	=26-	=26-	=26-	=26-	=26	=26	=26
!	!	!	!	!	!LO:TX:a:t=P:problem:pominięty fragment	!	!
!LO:TX:a:t=P:problem:# above	!	!	!	!	!	!	!
2F#Xi\	-na	.	1.d	mun-	1.ryy	.	.
2G\	no-	.	.	.	.	.	.
2G\	-bis	.	.	.	.	.	.
=27-	=27-	=27-	=27-	=27-	=27-	=27-	=27-
2E\	.	.	4d\	-di	2r	.	.
*	*	*	*	*Xij	*	*	*
.	.	.	4d\	do-	.	.	.
2Fny\	.	.	4cny\	.	2f\	[[mi-	Do-
.	.	.	4B\	.	.	.	.
!	!	!	!	!	!LO:SIC:v:s=2c\	!	!
2F\	.	.	2c\	-na	2d\	-ſe-	-na
!	!	!	!LO:LB:g=original	!	!	!	!
=28-	=28-	=28-	=28-	=28-	=28-	=28-	=28-
2C/	.	.	2c\	no-	1g	-re-	no-
1D	.	.	2A/	-bis	.	.	.
.	.	.	2A/	pa-	1f\	.	.
=29-	=29-	=29-	=29-	=29-	=29-	=29-	=29-
2.AA/	pa-	.	1.A	-ce(m)	.	.	.
.	.	.	.	.	2e\	.	.
4BB/	.	.	.	.	.	.	.
!LO:TX:a:t=P:problem:# above	!	!	!	!	!	!	!
!	!	!	!	!	!LO:SIC:v:s=1c#\	!	!
2C#Xi/	.	.	.	.	1d\	-re	-bis
=30-	=30-	=30-	=30-	=30-	=30-	=30-	=30-
*	*	*	*	*ij	*	*	*
2.D\	.	.	1A	do-	.	.	.
.	.	.	.	.	2.c/	no-	pa-
4E\	.	.	.	.	.	.	.
4F\	.	.	2A/	-na	.	.	.
4G\	.	.	.	.	4d\	.	.
=31-	=31-	=31-	=31-	=31-	=31-	=31-	=31-
2.A\	.	.	2A/	no-	2e\	.	.
.	.	.	2c\	.	1f	.	.
4A\	-ce(m)	.	.	.	.	.	.
2E\	pa-	.	2B\	.	.	.	.
=32-	=32-	=32-	=32-	=32-	=32-	=32-	=32-
2F\	.	.	2d\	bis	2d\	-bis]]	-ce(m)
2G\	.	.	2.e\	pa-	2.c/	.	do-
2A\	.	.	.	.	.	.	.
.	.	.	4A/	.	4c/	.	-na
!LO:LB:g=original	!	!	!	!	!	!	!
=33-	=33-	=33-	=33-	=33-	=33-	=33-	=33-
2D/	-ce(m)	.	2A/	-cem	2e\	.	no-
*	*	*	*	*Xij	*	*	*
2D/	do-	.	2A/	do-	2d\	.	.
2D/	-na	.	2d\	-na	2d\	.	-bis
=34-	=34-	=34-	=34-	=34-	=34-	=34-	=34-
1GG	no-	.	1d	no-	2c\	.	pa-
.	.	.	.	.	2d\	.	.
!	!	!	!	!	!LO:TX:a:t=P:problem:# above	!	!
2D/	-bis	.	2d\	-bis	4f#Xi\	.	.
!	!	!	!	!	!LO:TX:a:t=P:problem:# above	!	!
.	.	.	.	.	4f#Xi\	.	-ce(m)
!	!	!	!	!	!LO:LB:g=original	!	!
=35-	=35-	=35-	=35-	=35-	=35-	=35-	=35-
2r	.	.	2r	.	1f#	do-	.
*	*ij	*	*	*ij	*	*	*
2D/	do-	.	2d\	do-	.	.	.
2D/	-na	.	2d\	-na	2f#\	-na	.
=36-	=36-	=36-	=36-	=36-	=36-	=36-	=36-
1G	no-	.	1d	no-	1g	no-	.
2F\	-bis	.	2d\	-bis	2g\	-bis	.
*	*Xij	*	*	*Xij	*	*	*
=37-	=37-	=37-	=37-	=37-	=37-	=37-	=37-
1A	pa-	.	1d	.	1.e	pa-	.
!	!	!	!LO:TX:a:t=P:problem:# above	!	!	!	!
2AA/	.	.	2c#Xi\	pa-	.	.	.
=38-	=38-	=38-	=38-	=38-	=38-	=38-	=38-
1.Dl;;	-cem	.	1.dl;;	-ce(m)	1.f#l;;	-cem	.
==	==	==	==	==	==	==	==
*-	*-	*-	*-	*-	*-	*-	*-
!!title: @{OTL};
!!!RDF**kern: > = above
!!!RDF**kern: < = below
!!!RDF**kern: | = vertical stroke
!!!RDF**kern: N = linked
!!!RDF**kern: i = editorial accidental
!!!RDF**kern: l = terminal long
!!!EED: Wojciech Jakubiak-Danek
!!!EST: 2021-07-08
!!!URL-scan: http://repozytorium.nifc.pl/skany/pl-kk-nut--i-10
!!!ONB-nifc: UWAGA: części Mszy: 1. Kyrie, 2. Et in terra, 3. Patrem, 4. Sanctus, 5. Agnus Dei. A (skan 0035-0038), T (0083-0087), B (0133-0136). W księdze II zaklejone częściowo papierem fragmenty zapisanej partii T. Następny utwór: Missa alia Paschalis
!!!ENC: Andrzej Gręziak
!!!END: 2021-06-29
